assets/collections/apfm1000/logo_mono.svg

<svg id="svg" version="1.1" viewBox="0 0 400 51.25125125" xmlns="http://www.w3.org/2000/svg"><path d="m26.043 5.875c-0.091 0.115-0.482 1.146-0.869 2.292s-0.892 2.608-1.122 3.25c-0.542 1.509-1.544 4.239-1.714 4.666-1.109 2.806-1.356 3.635-1.126 3.782 0.234 0.149 22.682 0.181 23.233 0.034 0.198-0.054 0.436-0.297 0.527-0.54 0.312-0.828 1.002-2.772 1.608-4.526 0.611-1.769 0.938-2.637 1.368-3.626l0.236-0.544 7.531 0.044c8.279 0.047 7.972 5e-3 7.481 1.023-0.094 0.194-0.301 0.728-0.461 1.187-0.159 0.458-0.353 0.904-0.429 0.991-0.077 0.087-0.139 0.295-0.139 0.461s-0.071 0.432-0.158 0.592c-0.087 0.159-0.306 0.739-0.488 1.289-0.388 1.174-1.905 5.469-2.159 6.109-0.096 0.243-0.273 0.505-0.393 0.583-0.121 0.078-8.982 0.179-19.692 0.225l-19.474 0.083-0.662 1.833c-1.286 3.556-1.828 5.003-1.984 5.29-0.086 0.159-0.157 0.373-0.157 0.475s-0.107 0.421-0.237 0.71c-0.131 0.289-0.511 1.35-0.844 2.359-0.334 1.008-0.79 2.339-1.013 2.958s-0.6 1.669-0.836 2.333c-0.441 1.24-0.544 1.51-0.902 2.375-0.433 1.044-0.484 1.388-0.223 1.488 0.137 0.053 14.262 0.096 31.39 0.096 33.459 0 31.665 0.043 31.665-0.764 0-0.133 0.071-0.371 0.158-0.53s0.32-0.777 0.519-1.373c0.672-2.017 1.618-4.687 3.146-8.876 0.159-0.435 0.339-0.841 0.4-0.902s0.111-0.23 0.111-0.375c1e-3 -0.145 0.113-0.478 0.25-0.741s0.249-0.582 0.249-0.711c0-0.128 0.074-0.363 0.164-0.522 0.089-0.159 0.385-0.965 0.657-1.79 0.666-2.018 2.726-7.739 3.001-8.333 0.177-0.381 0.65-1.703 1.341-3.75 0.264-0.779 0.788-2.279 1.165-3.333 0.377-1.055 0.842-2.367 1.033-2.917s0.413-1.071 0.493-1.158c0.081-0.087 0.146-0.327 0.146-0.532 0-0.206 0.075-0.42 0.167-0.477 0.092-0.056 0.167-0.173 0.167-0.26 0-0.259-62.919-0.208-63.124 0.052m72.344 0c-0.085 0.115-0.325 0.733-0.535 1.375-0.577 1.764-1.683 4.957-1.847 5.333-0.08 0.184-0.344 0.896-0.588 1.584-0.244 0.687-0.504 1.4-0.577 1.583-0.462 1.154-0.72 1.851-1.235 3.333-1.052 3.029-1.997 5.677-3.508 9.834-0.234 0.641-0.501 1.297-0.594 1.456s-0.17 0.404-0.17 0.544-0.071 0.384-0.159 0.544c-0.088 0.159-0.355 0.889-0.594 1.622-0.239 0.734-0.617 1.84-0.84 2.459-0.224 0.618-0.6 1.668-0.837 2.333-0.236 0.665-0.493 1.358-0.57 1.542-0.077 0.183-0.271 0.708-0.431 1.166-0.16 0.459-0.353 0.905-0.43 0.992-0.076 0.087-0.139 0.316-0.139 0.508 0 0.193-0.088 0.439-0.197 0.548-0.108 0.108-0.14 0.254-0.069 0.325 0.148 0.148 22.421 0.272 23.212 0.129 0.578-0.104 0.75-0.484 2.421-5.335 0.095-0.275 0.265-0.725 0.378-1s0.299-0.763 0.414-1.083c0.114-0.321 0.27-0.734 0.345-0.917 0.123-0.302 0.809-2.21 1.168-3.25 0.079-0.229 0.454-1.317 0.833-2.417s0.81-2.093 0.958-2.208c0.21-0.164 4.265-0.208 18.986-0.208 18.04 0 18.718-0.011 18.718-0.306 0-0.168 0.051-0.357 0.114-0.42 0.127-0.126 0.335-0.679 1.047-2.774 0.79-2.325 2.678-7.627 2.998-8.417 0.074-0.183 0.264-0.671 0.421-1.083 0.158-0.413 0.355-0.881 0.437-1.04s0.15-0.436 0.15-0.615 0.066-0.366 0.146-0.416c0.081-0.05 0.185-0.261 0.232-0.469 0.047-0.207 0.464-1.46 0.926-2.785 0.463-1.324 0.804-2.468 0.759-2.541-0.149-0.241-61.165-0.167-61.343 0.074m68.06 0.583c-1.404 4.115-1.991 5.797-2.369 6.792-0.243 0.642-0.595 1.617-0.782 2.167s-0.405 1.071-0.485 1.158c-0.079 0.087-0.144 0.294-0.144 0.461 0 0.166-0.071 0.432-0.156 0.591-0.397 0.736-0.678 1.45-0.678 1.722 0 0.164-0.066 0.339-0.147 0.389s-0.185 0.298-0.231 0.552c-0.046 0.253-0.458 1.51-0.917 2.793-0.459 1.284-1.072 3.009-1.363 3.834s-0.626 1.725-0.744 2-0.308 0.762-0.423 1.083c-0.114 0.321-0.27 0.733-0.345 0.917-0.186 0.453-0.863 2.382-1.405 4-0.245 0.733-0.637 1.858-0.869 2.5-0.882 2.435-1.591 4.345-1.731 4.666-0.475 1.093-1.537 0.996 11.393 1.043 11.477 0.042 12.282 0.01 12.282-0.488 0-0.1 0.267-0.941 0.592-1.869 0.525-1.493 0.736-2.062 1.247-3.352 0.265-0.67 1.311-3.521 1.559-4.25 1.536-4.51 2.144-6.116 2.383-6.292 0.223-0.164 4.499-0.208 20.052-0.208h19.768l0.621-1.792c0.342-0.985 0.694-1.922 0.783-2.081s0.162-0.365 0.162-0.458c0-0.114-6.485-0.169-19.646-0.169-16.595 0-19.676-0.036-19.839-0.233-0.187-0.225-0.111-0.543 0.484-2.017 0.074-0.184 0.334-0.934 0.579-1.667 0.244-0.733 0.626-1.84 0.85-2.458 0.223-0.619 0.599-1.669 0.835-2.334 0.504-1.416 0.6-1.666 0.961-2.5l0.271-0.625h19.924c18.829 0 19.93-0.016 20.018-0.291 0.051-0.161 0.152-0.442 0.225-0.625 0.172-0.437 0.677-1.744 0.837-2.167 0.069-0.183 0.211-0.543 0.314-0.8 0.103-0.256 0.187-0.537 0.187-0.625 0-0.1-11.791-0.158-31.891-0.158h-31.892l-0.27 0.791m-32.283 4.25c-1e-3 0.207-0.122 0.713-0.268 1.125-0.146 0.413-0.553 1.575-0.903 2.584-0.884 2.541-1.632 4.604-1.813 5-0.084 0.183-0.356 0.896-0.604 1.583-0.65 1.802-0.047 1.667-7.421 1.667-7.079 0-7.015 9e-3 -6.638-0.938 0.105-0.264 0.699-1.942 1.32-3.729 1.531-4.403 2.285-6.479 2.59-7.125l0.255-0.542h13.485l-3e-3 0.375m109.447 5.903c-0.216 0.217-0.129 24.471 0.089 24.689 0.33 0.33 5.534 0.275 5.871-0.062 0.232-0.231 0.262-1.238 0.262-8.555 0-4.562 0.045-8.339 0.1-8.394 0.265-0.265 0.596 0.22 1.316 1.93 0.432 1.026 0.965 2.26 1.185 2.744 0.219 0.484 0.399 0.913 0.399 0.953 0 0.074 0.377 0.917 1.454 3.251 0.317 0.687 0.988 2.225 1.49 3.416 1.181 2.802 1.386 3.273 1.57 3.623 0.084 0.159 0.153 0.391 0.153 0.516 0 0.631 0.54 0.778 2.851 0.778 2.293 0 2.982-0.171 2.982-0.738 0-0.23 0.369-1.129 1.184-2.887 0.266-0.574 0.483-1.081 0.483-1.127 0-0.047 0.271-0.666 0.603-1.375 1.207-2.584 1.384-2.987 2.071-4.706 0.385-0.963 0.851-2.088 1.036-2.5 0.184-0.413 0.516-1.163 0.736-1.667s0.472-1.047 0.56-1.206c0.089-0.159 0.161-0.39 0.161-0.513 0-0.218 0.797-1.075 0.869-0.935 0.021 0.039 0.077 4.008 0.125 8.821l0.089 8.75 2.821 0.045c2.145 0.035 2.853-5e-3 2.956-0.166 0.074-0.117 0.136-5.744 0.137-12.504l3e-3 -12.292h-9.326l-0.337 0.698c-0.186 0.384-0.337 0.757-0.337 0.829s-0.196 0.564-0.434 1.093c-0.545 1.209-0.573 1.278-1.322 3.297-0.606 1.63-0.82 2.166-1.328 3.317-0.137 0.311-0.25 0.612-0.25 0.668s-0.158 0.457-0.352 0.891c-0.194 0.435-0.462 1.053-0.595 1.374-0.471 1.136-0.523 1.258-0.862 2.023-0.188 0.425-0.391 0.97-0.451 1.21-0.061 0.24-0.177 0.478-0.258 0.528-0.082 0.05-0.148 0.226-0.148 0.389 0 0.287-0.604 0.975-0.731 0.835-0.12-0.132-0.904-1.928-1.847-4.229-0.523-1.276-1.104-2.663-1.292-3.08-1.307-2.915-1.537-3.445-2.781-6.422-0.651-1.556-1.183-2.917-1.183-3.024 0-0.379-9.353-0.655-9.722-0.286m73.889 0.079c-5.441 1.193-7.882 3.789-8.754 9.31-1.21 7.659 1.726 14.159 6.921 15.323 0.504 0.113 1.188 0.274 1.519 0.358 1.362 0.344 4.391 0.171 6.564-0.375 2.736-0.688 5.263-3.283 6.302-6.473 0.968-2.973 0.93-8.931-0.075-11.458-0.849-2.138-2.414-4.238-3.774-5.064-0.341-0.207-0.657-0.42-0.703-0.474-0.113-0.132-2.776-0.963-3.5-1.092-1.06-0.19-3.737-0.222-4.5-0.055m24.917-0.031c-0.184 0.083-0.549 0.156-0.811 0.163-0.468 0.011-1.906 0.418-2.479 0.701-0.159 0.079-0.362 0.144-0.45 0.144-0.355 0-2.379 1.572-2.967 2.303-0.345 0.429-0.667 0.817-0.716 0.863-0.315 0.293-1.229 2.465-1.474 3.5-1.922 8.143 1.053 15.75 6.647 16.992 0.504 0.112 1.188 0.272 1.519 0.356 2.006 0.507 6.523-0.068 8.314-1.059 3.527-1.95 4.98-5.009 5.124-10.792 0.196-7.852-2.403-11.896-8.374-13.029-1.204-0.229-3.943-0.318-4.333-0.142m24.5 0c-0.184 0.083-0.549 0.156-0.811 0.163-0.468 0.011-1.906 0.418-2.479 0.701-0.159 0.079-0.396 0.144-0.528 0.144-0.131 0-0.263 0.056-0.293 0.125-0.031 0.068-0.485 0.405-1.009 0.748-5.749 3.759-5.704 17.93 0.067 21.509 1.085 0.673 1.759 1.01 2.303 1.149 4.009 1.033 7.456 0.836 10.302-0.588 6.828-3.416 7.344-17.822 0.798-22.272-1.866-1.268-6.983-2.297-8.35-1.679m-71.686 0.795c-0.828 2.573-3.046 3.969-6.994 4.402l-1.904 0.209v3.429l3.792 0.045 3.792 0.044 0.166 15.834 2.768 0.045c2.197 0.036 2.808-2e-3 2.96-0.185 0.141-0.17 0.18-3.359 0.148-12.129l-0.042-11.898-2.295-0.046c-2.077-0.042-2.305-0.019-2.391 0.25m25.868 3.141c0.496 0.144 0.901 0.332 0.901 0.417s0.111 0.155 0.248 0.155c1.84 0 3.252 7.13 2.344 11.833-0.695 3.597-2.087 5-4.958 5-3.633 0-5.295-2.773-5.294-8.833 0-6.654 2.492-9.813 6.759-8.572m24.523 7e-3c1.515 0.44 2.7 1.914 3.401 4.231 0.527 1.743 0.267 8.643-0.373 9.873-0.082 0.159-0.153 0.384-0.157 0.5-3e-3 0.116-0.322 0.612-0.708 1.102-0.626 0.796-0.927 1.03-1.991 1.551-0.159 0.077-0.891 0.141-1.627 0.141-2.901 0-4.285-1.429-5.003-5.167-0.202-1.048-0.185-6.426 0.022-7.333 0.094-0.413 0.212-0.994 0.261-1.293s0.157-0.585 0.238-0.635c0.082-0.05 0.15-0.218 0.153-0.374 0.029-1.775 3.402-3.289 5.784-2.596m24.275-0.073c3.092 0.884 4.4 4.44 3.927 10.674-0.274 3.607-1.678 6.464-3.177 6.464-0.162 0-0.34 0.075-0.397 0.166-0.057 0.092-0.737 0.167-1.512 0.167-4.144 0-5.72-3.29-5.226-10.908 0.326-5.019 2.819-7.582 6.385-6.563m-312.451 6.317c0.128 0.128 0.093 0.426-0.123 1.042-0.167 0.474-0.684 1.987-1.15 3.362-0.465 1.375-0.919 2.63-1.009 2.789-0.09 0.16-0.164 0.373-0.164 0.475s-0.104 0.422-0.23 0.711c-0.127 0.289-0.322 0.787-0.434 1.108-0.212 0.609-0.338 0.943-0.645 1.709l-0.184 0.458h-7.509c-6.771 0-7.519-0.027-7.612-0.27-0.103-0.269 0.364-1.836 0.637-2.138 0.079-0.087 0.144-0.316 0.144-0.509 0-0.192 0.066-0.421 0.148-0.508 0.081-0.087 0.378-0.833 0.658-1.658 1.63-4.796 2.22-6.356 2.473-6.542 0.378-0.277 14.724-0.305 15-0.029" fill-rule="evenodd"/></svg>

<svg id="svg" version="1.1" xmlns="http://www.w3.org/2000/svg" xmlns:xlink="http://www.w3.org/1999/xlink" width="400" height="51.251251251251254" viewBox="0, 0, 400,51.251251251251254"><g id="svgg"><path id="path1" d="M26.043 5.875 C 25.952 5.990,25.561 7.021,25.174 8.167 C 24.787 9.313,24.282 10.775,24.052 11.417 C 23.510 12.926,22.508 15.656,22.338 16.083 C 21.229 18.889,20.982 19.718,21.212 19.865 C 21.446 20.014,43.894 20.046,44.445 19.899 C 44.643 19.845,44.881 19.602,44.972 19.359 C 45.284 18.531,45.974 16.587,46.580 14.833 C 47.191 13.064,47.518 12.196,47.948 11.207 L 48.184 10.663 55.715 10.707 C 63.994 10.754,63.687 10.712,63.196 11.730 C 63.102 11.924,62.895 12.458,62.735 12.917 C 62.576 13.375,62.382 13.821,62.306 13.908 C 62.229 13.995,62.167 14.203,62.167 14.369 C 62.167 14.535,62.096 14.801,62.009 14.961 C 61.922 15.120,61.703 15.700,61.521 16.250 C 61.133 17.424,59.616 21.719,59.362 22.359 C 59.266 22.602,59.089 22.864,58.969 22.942 C 58.848 23.020,49.987 23.121,39.277 23.167 L 19.803 23.250 19.141 25.083 C 17.855 28.639,17.313 30.086,17.157 30.373 C 17.071 30.532,17.000 30.746,17.000 30.848 C 17.000 30.950,16.893 31.269,16.763 31.558 C 16.632 31.847,16.252 32.908,15.919 33.917 C 15.585 34.925,15.129 36.256,14.906 36.875 C 14.683 37.494,14.306 38.544,14.070 39.208 C 13.629 40.448,13.526 40.718,13.168 41.583 C 12.735 42.627,12.684 42.971,12.945 43.071 C 13.082 43.124,27.207 43.167,44.335 43.167 C 77.794 43.167,76.000 43.210,76.000 42.403 C 76.000 42.270,76.071 42.032,76.158 41.873 C 76.245 41.714,76.478 41.096,76.677 40.500 C 77.349 38.483,78.295 35.813,79.823 31.624 C 79.982 31.189,80.162 30.783,80.223 30.722 C 80.284 30.661,80.334 30.492,80.334 30.347 C 80.335 30.202,80.447 29.869,80.584 29.606 C 80.721 29.343,80.833 29.024,80.833 28.895 C 80.833 28.767,80.907 28.532,80.997 28.373 C 81.086 28.214,81.382 27.408,81.654 26.583 C 82.320 24.565,84.380 18.844,84.655 18.250 C 84.832 17.869,85.305 16.547,85.996 14.500 C 86.260 13.721,86.784 12.221,87.161 11.167 C 87.538 10.112,88.003 8.800,88.194 8.250 C 88.385 7.700,88.607 7.179,88.687 7.092 C 88.768 7.005,88.833 6.765,88.833 6.560 C 88.833 6.354,88.908 6.140,89.000 6.083 C 89.092 6.027,89.167 5.910,89.167 5.823 C 89.167 5.564,26.248 5.615,26.043 5.875 M98.387 5.875 C 98.302 5.990,98.062 6.608,97.852 7.250 C 97.275 9.014,96.169 12.207,96.005 12.583 C 95.925 12.767,95.661 13.479,95.417 14.167 C 95.173 14.854,94.913 15.567,94.840 15.750 C 94.378 16.904,94.120 17.601,93.605 19.083 C 92.553 22.112,91.608 24.760,90.097 28.917 C 89.863 29.558,89.596 30.214,89.503 30.373 C 89.410 30.532,89.333 30.777,89.333 30.917 C 89.333 31.057,89.262 31.301,89.174 31.461 C 89.086 31.620,88.819 32.350,88.580 33.083 C 88.341 33.817,87.963 34.923,87.740 35.542 C 87.516 36.160,87.140 37.210,86.903 37.875 C 86.667 38.540,86.410 39.233,86.333 39.417 C 86.256 39.600,86.062 40.125,85.902 40.583 C 85.742 41.042,85.549 41.488,85.472 41.575 C 85.396 41.662,85.333 41.891,85.333 42.083 C 85.333 42.276,85.245 42.522,85.136 42.631 C 85.028 42.739,84.996 42.885,85.067 42.956 C 85.215 43.104,107.488 43.228,108.279 43.085 C 108.857 42.981,109.029 42.601,110.700 37.750 C 110.795 37.475,110.965 37.025,111.078 36.750 C 111.191 36.475,111.377 35.987,111.492 35.667 C 111.606 35.346,111.762 34.933,111.837 34.750 C 111.960 34.448,112.646 32.540,113.005 31.500 C 113.084 31.271,113.459 30.183,113.838 29.083 C 114.217 27.983,114.648 26.990,114.796 26.875 C 115.006 26.711,119.061 26.667,133.782 26.667 C 151.822 26.667,152.500 26.656,152.500 26.361 C 152.500 26.193,152.551 26.004,152.614 25.941 C 152.741 25.815,152.949 25.262,153.661 23.167 C 154.451 20.842,156.339 15.540,156.659 14.750 C 156.733 14.567,156.923 14.079,157.080 13.667 C 157.238 13.254,157.435 12.786,157.517 12.627 C 157.599 12.468,157.667 12.191,157.667 12.012 C 157.667 11.833,157.733 11.646,157.813 11.596 C 157.894 11.546,157.998 11.335,158.045 11.127 C 158.092 10.920,158.509 9.667,158.971 8.342 C 159.434 7.018,159.775 5.874,159.730 5.801 C 159.581 5.560,98.565 5.634,98.387 5.875 M166.447 6.458 C 165.043 10.573,164.456 12.255,164.078 13.250 C 163.835 13.892,163.483 14.867,163.296 15.417 C 163.109 15.967,162.891 16.488,162.811 16.575 C 162.732 16.662,162.667 16.869,162.667 17.036 C 162.667 17.202,162.596 17.468,162.511 17.627 C 162.114 18.363,161.833 19.077,161.833 19.349 C 161.833 19.513,161.767 19.688,161.686 19.738 C 161.605 19.788,161.501 20.036,161.455 20.290 C 161.409 20.543,160.997 21.800,160.538 23.083 C 160.079 24.367,159.466 26.092,159.175 26.917 C 158.884 27.742,158.549 28.642,158.431 28.917 C 158.313 29.192,158.123 29.679,158.008 30.000 C 157.894 30.321,157.738 30.733,157.663 30.917 C 157.477 31.370,156.800 33.299,156.258 34.917 C 156.013 35.650,155.621 36.775,155.389 37.417 C 154.507 39.852,153.798 41.762,153.658 42.083 C 153.183 43.176,152.121 43.079,165.051 43.126 C 176.528 43.168,177.333 43.136,177.333 42.638 C 177.333 42.538,177.600 41.697,177.925 40.769 C 178.450 39.276,178.661 38.707,179.172 37.417 C 179.437 36.747,180.483 33.896,180.731 33.167 C 182.267 28.657,182.875 27.051,183.114 26.875 C 183.337 26.711,187.613 26.667,203.166 26.667 L 222.934 26.667 223.555 24.875 C 223.897 23.890,224.249 22.953,224.338 22.794 C 224.427 22.635,224.500 22.429,224.500 22.336 C 224.500 22.222,218.015 22.167,204.854 22.167 C 188.259 22.167,185.178 22.131,185.015 21.934 C 184.828 21.709,184.904 21.391,185.499 19.917 C 185.573 19.733,185.833 18.983,186.078 18.250 C 186.322 17.517,186.704 16.410,186.928 15.792 C 187.151 15.173,187.527 14.123,187.763 13.458 C 188.267 12.042,188.363 11.792,188.724 10.958 L 188.995 10.333 208.919 10.333 C 227.748 10.333,228.849 10.317,228.937 10.042 C 228.988 9.881,229.089 9.600,229.162 9.417 C 229.334 8.980,229.839 7.673,229.999 7.250 C 230.068 7.067,230.210 6.707,230.313 6.450 C 230.416 6.194,230.500 5.913,230.500 5.825 C 230.500 5.725,218.709 5.667,198.609 5.667 L 166.717 5.667 166.447 6.458 M134.164 10.708 C 134.163 10.915,134.042 11.421,133.896 11.833 C 133.750 12.246,133.343 13.408,132.993 14.417 C 132.109 16.958,131.361 19.021,131.180 19.417 C 131.096 19.600,130.824 20.313,130.576 21.000 C 129.926 22.802,130.529 22.667,123.155 22.667 C 116.076 22.667,116.140 22.676,116.517 21.729 C 116.622 21.465,117.216 19.787,117.837 18.000 C 119.368 13.597,120.122 11.521,120.427 10.875 L 120.682 10.333 127.424 10.333 L 134.167 10.333 134.164 10.708 M243.611 16.611 C 243.395 16.828,243.482 41.082,243.700 41.300 C 244.030 41.630,249.234 41.575,249.571 41.238 C 249.803 41.007,249.833 40.000,249.833 32.683 C 249.833 28.121,249.878 24.344,249.933 24.289 C 250.198 24.024,250.529 24.509,251.249 26.219 C 251.681 27.245,252.214 28.479,252.434 28.963 C 252.653 29.447,252.833 29.876,252.833 29.916 C 252.833 29.990,253.210 30.833,254.287 33.167 C 254.604 33.854,255.275 35.392,255.777 36.583 C 256.958 39.385,257.163 39.856,257.347 40.206 C 257.431 40.365,257.500 40.597,257.500 40.722 C 257.500 41.353,258.040 41.500,260.351 41.500 C 262.644 41.500,263.333 41.329,263.333 40.762 C 263.333 40.532,263.702 39.633,264.517 37.875 C 264.783 37.301,265.000 36.794,265.000 36.748 C 265.000 36.701,265.271 36.082,265.603 35.373 C 266.810 32.789,266.987 32.386,267.674 30.667 C 268.059 29.704,268.525 28.579,268.710 28.167 C 268.894 27.754,269.226 27.004,269.446 26.500 C 269.666 25.996,269.918 25.453,270.006 25.294 C 270.095 25.135,270.167 24.904,270.167 24.781 C 270.167 24.563,270.964 23.706,271.036 23.846 C 271.057 23.885,271.113 27.854,271.161 32.667 L 271.250 41.417 274.071 41.462 C 276.216 41.497,276.924 41.457,277.027 41.296 C 277.101 41.179,277.163 35.552,277.164 28.792 L 277.167 16.500 272.504 16.500 L 267.841 16.500 267.504 17.198 C 267.318 17.582,267.167 17.955,267.167 18.027 C 267.167 18.099,266.971 18.591,266.733 19.120 C 266.188 20.329,266.160 20.398,265.411 22.417 C 264.805 24.047,264.591 24.583,264.083 25.734 C 263.946 26.045,263.833 26.346,263.833 26.402 C 263.833 26.458,263.675 26.859,263.481 27.293 C 263.287 27.728,263.019 28.346,262.886 28.667 C 262.415 29.803,262.363 29.925,262.024 30.690 C 261.836 31.115,261.633 31.660,261.573 31.900 C 261.512 32.140,261.396 32.378,261.315 32.428 C 261.233 32.478,261.167 32.654,261.167 32.817 C 261.167 33.104,260.563 33.792,260.436 33.652 C 260.316 33.520,259.532 31.724,258.589 29.423 C 258.066 28.147,257.485 26.760,257.297 26.343 C 255.990 23.428,255.760 22.898,254.516 19.921 C 253.865 18.365,253.333 17.004,253.333 16.897 C 253.333 16.518,243.980 16.242,243.611 16.611 M317.500 16.690 C 312.059 17.883,309.618 20.479,308.746 26.000 C 307.536 33.659,310.472 40.159,315.667 41.323 C 316.171 41.436,316.855 41.597,317.186 41.681 C 318.548 42.025,321.577 41.852,323.750 41.306 C 326.486 40.618,329.013 38.023,330.052 34.833 C 331.020 31.860,330.982 25.902,329.977 23.375 C 329.128 21.237,327.563 19.137,326.203 18.311 C 325.862 18.104,325.546 17.891,325.500 17.837 C 325.387 17.705,322.724 16.874,322.000 16.745 C 320.940 16.555,318.263 16.523,317.500 16.690 M342.417 16.659 C 342.233 16.742,341.868 16.815,341.606 16.822 C 341.138 16.833,339.700 17.240,339.127 17.523 C 338.968 17.602,338.765 17.667,338.677 17.667 C 338.322 17.667,336.298 19.239,335.710 19.970 C 335.365 20.399,335.043 20.787,334.994 20.833 C 334.679 21.126,333.765 23.298,333.520 24.333 C 331.598 32.476,334.573 40.083,340.167 41.325 C 340.671 41.437,341.355 41.597,341.686 41.681 C 343.692 42.188,348.209 41.613,350.000 40.622 C 353.527 38.672,354.980 35.613,355.124 29.830 C 355.320 21.978,352.721 17.934,346.750 16.801 C 345.546 16.572,342.807 16.483,342.417 16.659 M366.917 16.659 C 366.733 16.742,366.368 16.815,366.106 16.822 C 365.638 16.833,364.200 17.240,363.627 17.523 C 363.468 17.602,363.231 17.667,363.099 17.667 C 362.968 17.667,362.836 17.723,362.806 17.792 C 362.775 17.860,362.321 18.197,361.797 18.540 C 356.048 22.299,356.093 36.470,361.864 40.049 C 362.949 40.722,363.623 41.059,364.167 41.198 C 368.176 42.231,371.623 42.034,374.469 40.610 C 381.297 37.194,381.813 22.788,375.267 18.338 C 373.401 17.070,368.284 16.041,366.917 16.659 M295.231 17.454 C 294.403 20.027,292.185 21.423,288.237 21.856 L 286.333 22.065 286.333 23.779 L 286.333 25.494 290.125 25.539 L 293.917 25.583 294.000 33.500 L 294.083 41.417 296.851 41.462 C 299.048 41.498,299.659 41.460,299.811 41.277 C 299.952 41.107,299.991 37.918,299.959 29.148 L 299.917 17.250 297.622 17.204 C 295.545 17.162,295.317 17.185,295.231 17.454 M321.099 20.595 C 321.595 20.739,322.000 20.927,322.000 21.012 C 322.000 21.097,322.111 21.167,322.248 21.167 C 324.088 21.167,325.500 28.297,324.592 33.000 C 323.897 36.597,322.505 38.000,319.634 38.000 C 316.001 38.000,314.339 35.227,314.340 29.167 C 314.340 22.513,316.832 19.354,321.099 20.595 M345.622 20.602 C 347.137 21.042,348.322 22.516,349.023 24.833 C 349.550 26.576,349.290 33.476,348.650 34.706 C 348.568 34.865,348.497 35.090,348.493 35.206 C 348.490 35.322,348.171 35.818,347.785 36.308 C 347.159 37.104,346.858 37.338,345.794 37.859 C 345.635 37.936,344.903 38.000,344.167 38.000 C 341.266 38.000,339.882 36.571,339.164 32.833 C 338.962 31.785,338.979 26.407,339.186 25.500 C 339.280 25.087,339.398 24.506,339.447 24.207 C 339.496 23.908,339.604 23.622,339.685 23.572 C 339.767 23.522,339.835 23.354,339.838 23.198 C 339.867 21.423,343.240 19.909,345.622 20.602 M369.897 20.529 C 372.989 21.413,374.297 24.969,373.824 31.203 C 373.550 34.810,372.146 37.667,370.647 37.667 C 370.485 37.667,370.307 37.742,370.250 37.833 C 370.193 37.925,369.513 38.000,368.738 38.000 C 364.594 38.000,363.018 34.710,363.512 27.092 C 363.838 22.073,366.331 19.510,369.897 20.529 M57.446 26.846 C 57.574 26.974,57.539 27.272,57.323 27.888 C 57.156 28.362,56.639 29.875,56.173 31.250 C 55.708 32.625,55.254 33.880,55.164 34.039 C 55.074 34.199,55.000 34.412,55.000 34.514 C 55.000 34.616,54.896 34.936,54.770 35.225 C 54.643 35.514,54.448 36.012,54.336 36.333 C 54.124 36.942,53.998 37.276,53.691 38.042 L 53.507 38.500 45.998 38.500 C 39.227 38.500,38.479 38.473,38.386 38.230 C 38.283 37.961,38.750 36.394,39.023 36.092 C 39.102 36.005,39.167 35.776,39.167 35.583 C 39.167 35.391,39.233 35.162,39.315 35.075 C 39.396 34.988,39.693 34.242,39.973 33.417 C 41.603 28.621,42.193 27.061,42.446 26.875 C 42.824 26.598,57.170 26.570,57.446 26.846 " stroke="none" fill="#ebebeb" fill-rule="evenodd"></path></g></svg>
